( pcb2gcode 2.0.0 )
( Software-independent Gcode )

G94 ( Millimeters per minute feed rate. )
G21 ( Units == Millimeters. )

G90 ( Absolute coordinates. )
G00 S6000 ( RPM spindle speed. )
G64 P0.01016 ( set maximum deviation from commanded toolpath )
G01 F600.00000 ( Feedrate. )


G00 Z30.00000 (Retract to tool change height)
T0
M5      (Spindle stop.)
G04 P10.00000 (Wait for spindle to stop)
(MSG, Change tool bit to cutter diameter 1.01000mm)
M6      (Tool change.)
M0      (Temporary machine stop.)
M3 ( Spindle on clockwise. )
G04 P10.00000 (Wait for spindle to get up to speed)
G04 P0 ( dwell for no time -- G64 should not smooth over this point )
G00 Z4.00000 ( retract )

G00 X-77.50498 Y-1.50000 ( rapid move to begin. )
G01 Z-0.37000 F300.00000 ( plunge. )
G04 P0 ( dwell for no time -- G64 should not smooth over this point )
G01 F600.00000
G01 X-77.50498 Y4.49999
G01 X-77.46655 Y4.69323
G01 X-77.35707 Y4.85706
G01 X-77.19324 Y4.96654
G01 X-77.00000 Y5.00497
G01 X2.99999 Y5.00497
G01 X3.19324 Y4.96654
G01 X3.35707 Y4.85706
G01 X3.46654 Y4.69323
G01 X3.50497 Y4.49999
G01 X3.50497 Y-1.50000
G01 X3.46654 Y-1.69324
G01 X3.35707 Y-1.85707
G01 X3.19324 Y-1.96654
G01 X2.99999 Y-2.00497
G01 X-77.00000 Y-2.00497
G01 X-77.19324 Y-1.96654
G01 X-77.35707 Y-1.85707
G01 X-77.46655 Y-1.69324
G01 X-77.50498 Y-1.50000
G01 Z-0.74000 F300.00000 ( plunge. )
G04 P0 ( dwell for no time -- G64 should not smooth over this point )
G01 F600.00000
G01 X-77.50498 Y4.49999
G01 X-77.46655 Y4.69323
G01 X-77.35707 Y4.85706
G01 X-77.19324 Y4.96654
G01 X-77.00000 Y5.00497
G01 X2.99999 Y5.00497
G01 X3.19324 Y4.96654
G01 X3.35707 Y4.85706
G01 X3.46654 Y4.69323
G01 X3.50497 Y4.49999
G01 X3.50497 Y-1.50000
G01 X3.46654 Y-1.69324
G01 X3.35707 Y-1.85707
G01 X3.19324 Y-1.96654
G01 X2.99999 Y-2.00497
G01 X-77.00000 Y-2.00497
G01 X-77.19324 Y-1.96654
G01 X-77.35707 Y-1.85707
G01 X-77.46655 Y-1.69324
G01 X-77.50498 Y-1.50000
G01 Z-1.11000 F300.00000 ( plunge. )
G04 P0 ( dwell for no time -- G64 should not smooth over this point )
G01 F600.00000
G01 X-77.50498 Y4.49999
G01 X-77.46655 Y4.69323
G01 X-77.35707 Y4.85706
G01 X-77.19324 Y4.96654
G01 X-77.00000 Y5.00497
G01 X2.99999 Y5.00497
G01 X3.19324 Y4.96654
G01 X3.35707 Y4.85706
G01 X3.46654 Y4.69323
G01 X3.50497 Y4.49999
G01 X3.50497 Y-1.50000
G01 X3.46654 Y-1.69324
G01 X3.35707 Y-1.85707
G01 X3.19324 Y-1.96654
G01 X2.99999 Y-2.00497
G01 X-77.00000 Y-2.00497
G01 X-77.19324 Y-1.96654
G01 X-77.35707 Y-1.85707
G01 X-77.46655 Y-1.69324
G01 X-77.50498 Y-1.50000
G01 Z-1.48000 F300.00000 ( plunge. )
G04 P0 ( dwell for no time -- G64 should not smooth over this point )
G01 F600.00000
G01 X-77.50498 Y4.49999
G01 X-77.46655 Y4.69323
G01 X-77.35707 Y4.85706
G01 X-77.19324 Y4.96654
G01 X-77.00000 Y5.00497
G01 X2.99999 Y5.00497
G01 X3.19324 Y4.96654
G01 X3.35707 Y4.85706
G01 X3.46654 Y4.69323
G01 X3.50497 Y4.49999
G01 X3.50497 Y-1.50000
G01 X3.46654 Y-1.69324
G01 X3.35707 Y-1.85707
G01 X3.19324 Y-1.96654
G01 X2.99999 Y-2.00497
G01 X-77.00000 Y-2.00497
G01 X-77.19324 Y-1.96654
G01 X-77.35707 Y-1.85707
G01 X-77.46655 Y-1.69324
G01 X-77.50498 Y-1.50000
G01 Z-1.85000 F300.00000 ( plunge. )
G04 P0 ( dwell for no time -- G64 should not smooth over this point )
G01 F600.00000
G01 X-77.50498 Y4.49999
G01 X-77.46655 Y4.69323
G01 X-77.35707 Y4.85706
G01 X-77.19324 Y4.96654
G01 X-77.00000 Y5.00497
G01 X2.99999 Y5.00497
G01 X3.19324 Y4.96654
G01 X3.35707 Y4.85706
G01 X3.46654 Y4.69323
G01 X3.50497 Y4.49999
G01 X3.50497 Y-1.50000
G01 X3.46654 Y-1.69324
G01 X3.35707 Y-1.85707
G01 X3.19324 Y-1.96654
G01 X2.99999 Y-2.00497
G01 X-77.00000 Y-2.00497
G01 X-77.19324 Y-1.96654
G01 X-77.35707 Y-1.85707
G01 X-77.46655 Y-1.69324
G01 X-77.50498 Y-1.50000
G04 P0 ( dwell for no time -- G64 should not smooth over this point )
G00 Z4.00000 ( retract )

G00 X-77.50498 Y8.49998 ( rapid move to begin. )
G01 Z-0.37000 F300.00000 ( plunge. )
G04 P0 ( dwell for no time -- G64 should not smooth over this point )
G01 F600.00000
G01 X-77.50498 Y14.50000
G01 X-77.46655 Y14.69324
G01 X-77.35707 Y14.85707
G01 X-77.19324 Y14.96654
G01 X-77.00000 Y15.00497
G01 X2.99999 Y15.00497
G01 X3.19324 Y14.96654
G01 X3.35707 Y14.85707
G01 X3.46654 Y14.69324
G01 X3.50497 Y14.50000
G01 X3.50497 Y8.49998
G01 X3.46654 Y8.30671
G01 X3.35707 Y8.14288
G01 X3.19324 Y8.03341
G01 X2.99999 Y7.99498
G01 X-77.00000 Y7.99498
G01 X-77.19324 Y8.03341
G01 X-77.35707 Y8.14288
G01 X-77.46655 Y8.30671
G01 X-77.50498 Y8.49998
G01 Z-0.74000 F300.00000 ( plunge. )
G04 P0 ( dwell for no time -- G64 should not smooth over this point )
G01 F600.00000
G01 X-77.50498 Y14.50000
G01 X-77.46655 Y14.69324
G01 X-77.35707 Y14.85707
G01 X-77.19324 Y14.96654
G01 X-77.00000 Y15.00497
G01 X2.99999 Y15.00497
G01 X3.19324 Y14.96654
G01 X3.35707 Y14.85707
G01 X3.46654 Y14.69324
G01 X3.50497 Y14.50000
G01 X3.50497 Y8.49998
G01 X3.46654 Y8.30671
G01 X3.35707 Y8.14288
G01 X3.19324 Y8.03341
G01 X2.99999 Y7.99498
G01 X-77.00000 Y7.99498
G01 X-77.19324 Y8.03341
G01 X-77.35707 Y8.14288
G01 X-77.46655 Y8.30671
G01 X-77.50498 Y8.49998
G01 Z-1.11000 F300.00000 ( plunge. )
G04 P0 ( dwell for no time -- G64 should not smooth over this point )
G01 F600.00000
G01 X-77.50498 Y14.50000
G01 X-77.46655 Y14.69324
G01 X-77.35707 Y14.85707
G01 X-77.19324 Y14.96654
G01 X-77.00000 Y15.00497
G01 X2.99999 Y15.00497
G01 X3.19324 Y14.96654
G01 X3.35707 Y14.85707
G01 X3.46654 Y14.69324
G01 X3.50497 Y14.50000
G01 X3.50497 Y8.49998
G01 X3.46654 Y8.30671
G01 X3.35707 Y8.14288
G01 X3.19324 Y8.03341
G01 X2.99999 Y7.99498
G01 X-77.00000 Y7.99498
G01 X-77.19324 Y8.03341
G01 X-77.35707 Y8.14288
G01 X-77.46655 Y8.30671
G01 X-77.50498 Y8.49998
G01 Z-1.48000 F300.00000 ( plunge. )
G04 P0 ( dwell for no time -- G64 should not smooth over this point )
G01 F600.00000
G01 X-77.50498 Y14.50000
G01 X-77.46655 Y14.69324
G01 X-77.35707 Y14.85707
G01 X-77.19324 Y14.96654
G01 X-77.00000 Y15.00497
G01 X2.99999 Y15.00497
G01 X3.19324 Y14.96654
G01 X3.35707 Y14.85707
G01 X3.46654 Y14.69324
G01 X3.50497 Y14.50000
G01 X3.50497 Y8.49998
G01 X3.46654 Y8.30671
G01 X3.35707 Y8.14288
G01 X3.19324 Y8.03341
G01 X2.99999 Y7.99498
G01 X-77.00000 Y7.99498
G01 X-77.19324 Y8.03341
G01 X-77.35707 Y8.14288
G01 X-77.46655 Y8.30671
G01 X-77.50498 Y8.49998
G01 Z-1.85000 F300.00000 ( plunge. )
G04 P0 ( dwell for no time -- G64 should not smooth over this point )
G01 F600.00000
G01 X-77.50498 Y14.50000
G01 X-77.46655 Y14.69324
G01 X-77.35707 Y14.85707
G01 X-77.19324 Y14.96654
G01 X-77.00000 Y15.00497
G01 X2.99999 Y15.00497
G01 X3.19324 Y14.96654
G01 X3.35707 Y14.85707
G01 X3.46654 Y14.69324
G01 X3.50497 Y14.50000
G01 X3.50497 Y8.49998
G01 X3.46654 Y8.30671
G01 X3.35707 Y8.14288
G01 X3.19324 Y8.03341
G01 X2.99999 Y7.99498
G01 X-77.00000 Y7.99498
G01 X-77.19324 Y8.03341
G01 X-77.35707 Y8.14288
G01 X-77.46655 Y8.30671
G01 X-77.50498 Y8.49998
G04 P0 ( dwell for no time -- G64 should not smooth over this point )
G00 Z4.00000 ( retract )

G00 X-77.50498 Y18.49999 ( rapid move to begin. )
G01 Z-0.37000 F300.00000 ( plunge. )
G04 P0 ( dwell for no time -- G64 should not smooth over this point )
G01 F600.00000
G01 X-77.50498 Y24.49998
G01 X-77.46655 Y24.69322
G01 X-77.35707 Y24.85705
G01 X-77.19324 Y24.96652
G01 X-77.00000 Y25.00495
G01 X2.99999 Y25.00495
G01 X3.19324 Y24.96652
G01 X3.35707 Y24.85705
G01 X3.46654 Y24.69322
G01 X3.50497 Y24.49998
G01 X3.50497 Y18.49999
G01 X3.46654 Y18.30672
G01 X3.35707 Y18.14289
G01 X3.19324 Y18.03342
G01 X2.99999 Y17.99499
G01 X-77.00000 Y17.99499
G01 X-77.19324 Y18.03342
G01 X-77.35707 Y18.14289
G01 X-77.46655 Y18.30672
G01 X-77.50498 Y18.49999
G01 Z-0.74000 F300.00000 ( plunge. )
G04 P0 ( dwell for no time -- G64 should not smooth over this point )
G01 F600.00000
G01 X-77.50498 Y24.49998
G01 X-77.46655 Y24.69322
G01 X-77.35707 Y24.85705
G01 X-77.19324 Y24.96652
G01 X-77.00000 Y25.00495
G01 X2.99999 Y25.00495
G01 X3.19324 Y24.96652
G01 X3.35707 Y24.85705
G01 X3.46654 Y24.69322
G01 X3.50497 Y24.49998
G01 X3.50497 Y18.49999
G01 X3.46654 Y18.30672
G01 X3.35707 Y18.14289
G01 X3.19324 Y18.03342
G01 X2.99999 Y17.99499
G01 X-77.00000 Y17.99499
G01 X-77.19324 Y18.03342
G01 X-77.35707 Y18.14289
G01 X-77.46655 Y18.30672
G01 X-77.50498 Y18.49999
G01 Z-1.11000 F300.00000 ( plunge. )
G04 P0 ( dwell for no time -- G64 should not smooth over this point )
G01 F600.00000
G01 X-77.50498 Y24.49998
G01 X-77.46655 Y24.69322
G01 X-77.35707 Y24.85705
G01 X-77.19324 Y24.96652
G01 X-77.00000 Y25.00495
G01 X2.99999 Y25.00495
G01 X3.19324 Y24.96652
G01 X3.35707 Y24.85705
G01 X3.46654 Y24.69322
G01 X3.50497 Y24.49998
G01 X3.50497 Y18.49999
G01 X3.46654 Y18.30672
G01 X3.35707 Y18.14289
G01 X3.19324 Y18.03342
G01 X2.99999 Y17.99499
G01 X-77.00000 Y17.99499
G01 X-77.19324 Y18.03342
G01 X-77.35707 Y18.14289
G01 X-77.46655 Y18.30672
G01 X-77.50498 Y18.49999
G01 Z-1.48000 F300.00000 ( plunge. )
G04 P0 ( dwell for no time -- G64 should not smooth over this point )
G01 F600.00000
G01 X-77.50498 Y24.49998
G01 X-77.46655 Y24.69322
G01 X-77.35707 Y24.85705
G01 X-77.19324 Y24.96652
G01 X-77.00000 Y25.00495
G01 X2.99999 Y25.00495
G01 X3.19324 Y24.96652
G01 X3.35707 Y24.85705
G01 X3.46654 Y24.69322
G01 X3.50497 Y24.49998
G01 X3.50497 Y18.49999
G01 X3.46654 Y18.30672
G01 X3.35707 Y18.14289
G01 X3.19324 Y18.03342
G01 X2.99999 Y17.99499
G01 X-77.00000 Y17.99499
G01 X-77.19324 Y18.03342
G01 X-77.35707 Y18.14289
G01 X-77.46655 Y18.30672
G01 X-77.50498 Y18.49999
G01 Z-1.85000 F300.00000 ( plunge. )
G04 P0 ( dwell for no time -- G64 should not smooth over this point )
G01 F600.00000
G01 X-77.50498 Y24.49998
G01 X-77.46655 Y24.69322
G01 X-77.35707 Y24.85705
G01 X-77.19324 Y24.96652
G01 X-77.00000 Y25.00495
G01 X2.99999 Y25.00495
G01 X3.19324 Y24.96652
G01 X3.35707 Y24.85705
G01 X3.46654 Y24.69322
G01 X3.50497 Y24.49998
G01 X3.50497 Y18.49999
G01 X3.46654 Y18.30672
G01 X3.35707 Y18.14289
G01 X3.19324 Y18.03342
G01 X2.99999 Y17.99499
G01 X-77.00000 Y17.99499
G01 X-77.19324 Y18.03342
G01 X-77.35707 Y18.14289
G01 X-77.46655 Y18.30672
G01 X-77.50498 Y18.49999
G04 P0 ( dwell for no time -- G64 should not smooth over this point )
G00 Z4.00000 ( retract )

G00 X-77.50498 Y28.49999 ( rapid move to begin. )
G01 Z-0.37000 F300.00000 ( plunge. )
G04 P0 ( dwell for no time -- G64 should not smooth over this point )
G01 F600.00000
G01 X-77.50498 Y34.49998
G01 X-77.46655 Y34.69322
G01 X-77.35707 Y34.85705
G01 X-77.19324 Y34.96653
G01 X-77.00000 Y35.00496
G01 X2.99999 Y35.00496
G01 X3.19324 Y34.96653
G01 X3.35707 Y34.85705
G01 X3.46654 Y34.69322
G01 X3.50497 Y34.49998
G01 X3.50497 Y28.49999
G01 X3.46654 Y28.30673
G01 X3.35707 Y28.14290
G01 X3.19324 Y28.03342
G01 X2.99999 Y27.99499
G01 X-77.00000 Y27.99499
G01 X-77.19324 Y28.03342
G01 X-77.35707 Y28.14290
G01 X-77.46655 Y28.30673
G01 X-77.50498 Y28.49999
G01 Z-0.74000 F300.00000 ( plunge. )
G04 P0 ( dwell for no time -- G64 should not smooth over this point )
G01 F600.00000
G01 X-77.50498 Y34.49998
G01 X-77.46655 Y34.69322
G01 X-77.35707 Y34.85705
G01 X-77.19324 Y34.96653
G01 X-77.00000 Y35.00496
G01 X2.99999 Y35.00496
G01 X3.19324 Y34.96653
G01 X3.35707 Y34.85705
G01 X3.46654 Y34.69322
G01 X3.50497 Y34.49998
G01 X3.50497 Y28.49999
G01 X3.46654 Y28.30673
G01 X3.35707 Y28.14290
G01 X3.19324 Y28.03342
G01 X2.99999 Y27.99499
G01 X-77.00000 Y27.99499
G01 X-77.19324 Y28.03342
G01 X-77.35707 Y28.14290
G01 X-77.46655 Y28.30673
G01 X-77.50498 Y28.49999
G01 Z-1.11000 F300.00000 ( plunge. )
G04 P0 ( dwell for no time -- G64 should not smooth over this point )
G01 F600.00000
G01 X-77.50498 Y34.49998
G01 X-77.46655 Y34.69322
G01 X-77.35707 Y34.85705
G01 X-77.19324 Y34.96653
G01 X-77.00000 Y35.00496
G01 X2.99999 Y35.00496
G01 X3.19324 Y34.96653
G01 X3.35707 Y34.85705
G01 X3.46654 Y34.69322
G01 X3.50497 Y34.49998
G01 X3.50497 Y28.49999
G01 X3.46654 Y28.30673
G01 X3.35707 Y28.14290
G01 X3.19324 Y28.03342
G01 X2.99999 Y27.99499
G01 X-77.00000 Y27.99499
G01 X-77.19324 Y28.03342
G01 X-77.35707 Y28.14290
G01 X-77.46655 Y28.30673
G01 X-77.50498 Y28.49999
G01 Z-1.48000 F300.00000 ( plunge. )
G04 P0 ( dwell for no time -- G64 should not smooth over this point )
G01 F600.00000
G01 X-77.50498 Y34.49998
G01 X-77.46655 Y34.69322
G01 X-77.35707 Y34.85705
G01 X-77.19324 Y34.96653
G01 X-77.00000 Y35.00496
G01 X2.99999 Y35.00496
G01 X3.19324 Y34.96653
G01 X3.35707 Y34.85705
G01 X3.46654 Y34.69322
G01 X3.50497 Y34.49998
G01 X3.50497 Y28.49999
G01 X3.46654 Y28.30673
G01 X3.35707 Y28.14290
G01 X3.19324 Y28.03342
G01 X2.99999 Y27.99499
G01 X-77.00000 Y27.99499
G01 X-77.19324 Y28.03342
G01 X-77.35707 Y28.14290
G01 X-77.46655 Y28.30673
G01 X-77.50498 Y28.49999
G01 Z-1.85000 F300.00000 ( plunge. )
G04 P0 ( dwell for no time -- G64 should not smooth over this point )
G01 F600.00000
G01 X-77.50498 Y34.49998
G01 X-77.46655 Y34.69322
G01 X-77.35707 Y34.85705
G01 X-77.19324 Y34.96653
G01 X-77.00000 Y35.00496
G01 X2.99999 Y35.00496
G01 X3.19324 Y34.96653
G01 X3.35707 Y34.85705
G01 X3.46654 Y34.69322
G01 X3.50497 Y34.49998
G01 X3.50497 Y28.49999
G01 X3.46654 Y28.30673
G01 X3.35707 Y28.14290
G01 X3.19324 Y28.03342
G01 X2.99999 Y27.99499
G01 X-77.00000 Y27.99499
G01 X-77.19324 Y28.03342
G01 X-77.35707 Y28.14290
G01 X-77.46655 Y28.30673
G01 X-77.50498 Y28.49999
G04 P0 ( dwell for no time -- G64 should not smooth over this point )
G00 Z4.00000 ( retract )

G00 X-77.50498 Y38.50000 ( rapid move to begin. )
G01 Z-0.37000 F300.00000 ( plunge. )
G04 P0 ( dwell for no time -- G64 should not smooth over this point )
G01 F600.00000
G01 X-77.50498 Y44.49999
G01 X-77.46655 Y44.69323
G01 X-77.35707 Y44.85706
G01 X-77.19324 Y44.96653
G01 X-77.00000 Y45.00496
G01 X2.99999 Y45.00496
G01 X3.19324 Y44.96653
G01 X3.35707 Y44.85706
G01 X3.46654 Y44.69323
G01 X3.50497 Y44.49999
G01 X3.50497 Y38.50000
G01 X3.46654 Y38.30673
G01 X3.35707 Y38.14290
G01 X3.19324 Y38.03343
G01 X2.99999 Y37.99500
G01 X-77.00000 Y37.99500
G01 X-77.19324 Y38.03343
G01 X-77.35707 Y38.14290
G01 X-77.46655 Y38.30673
G01 X-77.50498 Y38.50000
G01 Z-0.74000 F300.00000 ( plunge. )
G04 P0 ( dwell for no time -- G64 should not smooth over this point )
G01 F600.00000
G01 X-77.50498 Y44.49999
G01 X-77.46655 Y44.69323
G01 X-77.35707 Y44.85706
G01 X-77.19324 Y44.96653
G01 X-77.00000 Y45.00496
G01 X2.99999 Y45.00496
G01 X3.19324 Y44.96653
G01 X3.35707 Y44.85706
G01 X3.46654 Y44.69323
G01 X3.50497 Y44.49999
G01 X3.50497 Y38.50000
G01 X3.46654 Y38.30673
G01 X3.35707 Y38.14290
G01 X3.19324 Y38.03343
G01 X2.99999 Y37.99500
G01 X-77.00000 Y37.99500
G01 X-77.19324 Y38.03343
G01 X-77.35707 Y38.14290
G01 X-77.46655 Y38.30673
G01 X-77.50498 Y38.50000
G01 Z-1.11000 F300.00000 ( plunge. )
G04 P0 ( dwell for no time -- G64 should not smooth over this point )
G01 F600.00000
G01 X-77.50498 Y44.49999
G01 X-77.46655 Y44.69323
G01 X-77.35707 Y44.85706
G01 X-77.19324 Y44.96653
G01 X-77.00000 Y45.00496
G01 X2.99999 Y45.00496
G01 X3.19324 Y44.96653
G01 X3.35707 Y44.85706
G01 X3.46654 Y44.69323
G01 X3.50497 Y44.49999
G01 X3.50497 Y38.50000
G01 X3.46654 Y38.30673
G01 X3.35707 Y38.14290
G01 X3.19324 Y38.03343
G01 X2.99999 Y37.99500
G01 X-77.00000 Y37.99500
G01 X-77.19324 Y38.03343
G01 X-77.35707 Y38.14290
G01 X-77.46655 Y38.30673
G01 X-77.50498 Y38.50000
G01 Z-1.48000 F300.00000 ( plunge. )
G04 P0 ( dwell for no time -- G64 should not smooth over this point )
G01 F600.00000
G01 X-77.50498 Y44.49999
G01 X-77.46655 Y44.69323
G01 X-77.35707 Y44.85706
G01 X-77.19324 Y44.96653
G01 X-77.00000 Y45.00496
G01 X2.99999 Y45.00496
G01 X3.19324 Y44.96653
G01 X3.35707 Y44.85706
G01 X3.46654 Y44.69323
G01 X3.50497 Y44.49999
G01 X3.50497 Y38.50000
G01 X3.46654 Y38.30673
G01 X3.35707 Y38.14290
G01 X3.19324 Y38.03343
G01 X2.99999 Y37.99500
G01 X-77.00000 Y37.99500
G01 X-77.19324 Y38.03343
G01 X-77.35707 Y38.14290
G01 X-77.46655 Y38.30673
G01 X-77.50498 Y38.50000
G01 Z-1.85000 F300.00000 ( plunge. )
G04 P0 ( dwell for no time -- G64 should not smooth over this point )
G01 F600.00000
G01 X-77.50498 Y44.49999
G01 X-77.46655 Y44.69323
G01 X-77.35707 Y44.85706
G01 X-77.19324 Y44.96653
G01 X-77.00000 Y45.00496
G01 X2.99999 Y45.00496
G01 X3.19324 Y44.96653
G01 X3.35707 Y44.85706
G01 X3.46654 Y44.69323
G01 X3.50497 Y44.49999
G01 X3.50497 Y38.50000
G01 X3.46654 Y38.30673
G01 X3.35707 Y38.14290
G01 X3.19324 Y38.03343
G01 X2.99999 Y37.99500
G01 X-77.00000 Y37.99500
G01 X-77.19324 Y38.03343
G01 X-77.35707 Y38.14290
G01 X-77.46655 Y38.30673
G01 X-77.50498 Y38.50000
G04 P0 ( dwell for no time -- G64 should not smooth over this point )
G00 Z4.00000 ( retract )

G00 X-77.50498 Y48.49998 ( rapid move to begin. )
G01 Z-0.37000 F300.00000 ( plunge. )
G04 P0 ( dwell for no time -- G64 should not smooth over this point )
G01 F600.00000
G01 X-77.50498 Y54.49999
G01 X-77.46655 Y54.69324
G01 X-77.35707 Y54.85707
G01 X-77.19324 Y54.96654
G01 X-77.00000 Y55.00497
G01 X2.99999 Y55.00497
G01 X3.19324 Y54.96654
G01 X3.35707 Y54.85707
G01 X3.46654 Y54.69324
G01 X3.50497 Y54.49999
G01 X3.50497 Y48.49998
G01 X3.46654 Y48.30671
G01 X3.35707 Y48.14288
G01 X3.19324 Y48.03341
G01 X2.99999 Y47.99498
G01 X-77.00000 Y47.99498
G01 X-77.19324 Y48.03341
G01 X-77.35707 Y48.14288
G01 X-77.46655 Y48.30671
G01 X-77.50498 Y48.49998
G01 Z-0.74000 F300.00000 ( plunge. )
G04 P0 ( dwell for no time -- G64 should not smooth over this point )
G01 F600.00000
G01 X-77.50498 Y54.49999
G01 X-77.46655 Y54.69324
G01 X-77.35707 Y54.85707
G01 X-77.19324 Y54.96654
G01 X-77.00000 Y55.00497
G01 X2.99999 Y55.00497
G01 X3.19324 Y54.96654
G01 X3.35707 Y54.85707
G01 X3.46654 Y54.69324
G01 X3.50497 Y54.49999
G01 X3.50497 Y48.49998
G01 X3.46654 Y48.30671
G01 X3.35707 Y48.14288
G01 X3.19324 Y48.03341
G01 X2.99999 Y47.99498
G01 X-77.00000 Y47.99498
G01 X-77.19324 Y48.03341
G01 X-77.35707 Y48.14288
G01 X-77.46655 Y48.30671
G01 X-77.50498 Y48.49998
G01 Z-1.11000 F300.00000 ( plunge. )
G04 P0 ( dwell for no time -- G64 should not smooth over this point )
G01 F600.00000
G01 X-77.50498 Y54.49999
G01 X-77.46655 Y54.69324
G01 X-77.35707 Y54.85707
G01 X-77.19324 Y54.96654
G01 X-77.00000 Y55.00497
G01 X2.99999 Y55.00497
G01 X3.19324 Y54.96654
G01 X3.35707 Y54.85707
G01 X3.46654 Y54.69324
G01 X3.50497 Y54.49999
G01 X3.50497 Y48.49998
G01 X3.46654 Y48.30671
G01 X3.35707 Y48.14288
G01 X3.19324 Y48.03341
G01 X2.99999 Y47.99498
G01 X-77.00000 Y47.99498
G01 X-77.19324 Y48.03341
G01 X-77.35707 Y48.14288
G01 X-77.46655 Y48.30671
G01 X-77.50498 Y48.49998
G01 Z-1.48000 F300.00000 ( plunge. )
G04 P0 ( dwell for no time -- G64 should not smooth over this point )
G01 F600.00000
G01 X-77.50498 Y54.49999
G01 X-77.46655 Y54.69324
G01 X-77.35707 Y54.85707
G01 X-77.19324 Y54.96654
G01 X-77.00000 Y55.00497
G01 X2.99999 Y55.00497
G01 X3.19324 Y54.96654
G01 X3.35707 Y54.85707
G01 X3.46654 Y54.69324
G01 X3.50497 Y54.49999
G01 X3.50497 Y48.49998
G01 X3.46654 Y48.30671
G01 X3.35707 Y48.14288
G01 X3.19324 Y48.03341
G01 X2.99999 Y47.99498
G01 X-77.00000 Y47.99498
G01 X-77.19324 Y48.03341
G01 X-77.35707 Y48.14288
G01 X-77.46655 Y48.30671
G01 X-77.50498 Y48.49998
G01 Z-1.85000 F300.00000 ( plunge. )
G04 P0 ( dwell for no time -- G64 should not smooth over this point )
G01 F600.00000
G01 X-77.50498 Y54.49999
G01 X-77.46655 Y54.69324
G01 X-77.35707 Y54.85707
G01 X-77.19324 Y54.96654
G01 X-77.00000 Y55.00497
G01 X2.99999 Y55.00497
G01 X3.19324 Y54.96654
G01 X3.35707 Y54.85707
G01 X3.46654 Y54.69324
G01 X3.50497 Y54.49999
G01 X3.50497 Y48.49998
G01 X3.46654 Y48.30671
G01 X3.35707 Y48.14288
G01 X3.19324 Y48.03341
G01 X2.99999 Y47.99498
G01 X-77.00000 Y47.99498
G01 X-77.19324 Y48.03341
G01 X-77.35707 Y48.14288
G01 X-77.46655 Y48.30671
G01 X-77.50498 Y48.49998
G04 P0 ( dwell for no time -- G64 should not smooth over this point )
G00 Z4.00000 ( retract )

G00 X-77.50498 Y58.49998 ( rapid move to begin. )
G01 Z-0.37000 F300.00000 ( plunge. )
G04 P0 ( dwell for no time -- G64 should not smooth over this point )
G01 F600.00000
G01 X-77.50498 Y64.50000
G01 X-77.46655 Y64.69324
G01 X-77.35707 Y64.85707
G01 X-77.19324 Y64.96655
G01 X-77.00000 Y65.00498
G01 X2.99999 Y65.00498
G01 X3.19324 Y64.96655
G01 X3.35707 Y64.85707
G01 X3.46654 Y64.69324
G01 X3.50497 Y64.50000
G01 X3.50497 Y58.49998
G01 X3.46654 Y58.30672
G01 X3.35707 Y58.14289
G01 X3.19324 Y58.03341
G01 X2.99999 Y57.99498
G01 X-77.00000 Y57.99498
G01 X-77.19324 Y58.03341
G01 X-77.35707 Y58.14289
G01 X-77.46655 Y58.30672
G01 X-77.50498 Y58.49998
G01 Z-0.74000 F300.00000 ( plunge. )
G04 P0 ( dwell for no time -- G64 should not smooth over this point )
G01 F600.00000
G01 X-77.50498 Y64.50000
G01 X-77.46655 Y64.69324
G01 X-77.35707 Y64.85707
G01 X-77.19324 Y64.96655
G01 X-77.00000 Y65.00498
G01 X2.99999 Y65.00498
G01 X3.19324 Y64.96655
G01 X3.35707 Y64.85707
G01 X3.46654 Y64.69324
G01 X3.50497 Y64.50000
G01 X3.50497 Y58.49998
G01 X3.46654 Y58.30672
G01 X3.35707 Y58.14289
G01 X3.19324 Y58.03341
G01 X2.99999 Y57.99498
G01 X-77.00000 Y57.99498
G01 X-77.19324 Y58.03341
G01 X-77.35707 Y58.14289
G01 X-77.46655 Y58.30672
G01 X-77.50498 Y58.49998
G01 Z-1.11000 F300.00000 ( plunge. )
G04 P0 ( dwell for no time -- G64 should not smooth over this point )
G01 F600.00000
G01 X-77.50498 Y64.50000
G01 X-77.46655 Y64.69324
G01 X-77.35707 Y64.85707
G01 X-77.19324 Y64.96655
G01 X-77.00000 Y65.00498
G01 X2.99999 Y65.00498
G01 X3.19324 Y64.96655
G01 X3.35707 Y64.85707
G01 X3.46654 Y64.69324
G01 X3.50497 Y64.50000
G01 X3.50497 Y58.49998
G01 X3.46654 Y58.30672
G01 X3.35707 Y58.14289
G01 X3.19324 Y58.03341
G01 X2.99999 Y57.99498
G01 X-77.00000 Y57.99498
G01 X-77.19324 Y58.03341
G01 X-77.35707 Y58.14289
G01 X-77.46655 Y58.30672
G01 X-77.50498 Y58.49998
G01 Z-1.48000 F300.00000 ( plunge. )
G04 P0 ( dwell for no time -- G64 should not smooth over this point )
G01 F600.00000
G01 X-77.50498 Y64.50000
G01 X-77.46655 Y64.69324
G01 X-77.35707 Y64.85707
G01 X-77.19324 Y64.96655
G01 X-77.00000 Y65.00498
G01 X2.99999 Y65.00498
G01 X3.19324 Y64.96655
G01 X3.35707 Y64.85707
G01 X3.46654 Y64.69324
G01 X3.50497 Y64.50000
G01 X3.50497 Y58.49998
G01 X3.46654 Y58.30672
G01 X3.35707 Y58.14289
G01 X3.19324 Y58.03341
G01 X2.99999 Y57.99498
G01 X-77.00000 Y57.99498
G01 X-77.19324 Y58.03341
G01 X-77.35707 Y58.14289
G01 X-77.46655 Y58.30672
G01 X-77.50498 Y58.49998
G01 Z-1.85000 F300.00000 ( plunge. )
G04 P0 ( dwell for no time -- G64 should not smooth over this point )
G01 F600.00000
G01 X-77.50498 Y64.50000
G01 X-77.46655 Y64.69324
G01 X-77.35707 Y64.85707
G01 X-77.19324 Y64.96655
G01 X-77.00000 Y65.00498
G01 X2.99999 Y65.00498
G01 X3.19324 Y64.96655
G01 X3.35707 Y64.85707
G01 X3.46654 Y64.69324
G01 X3.50497 Y64.50000
G01 X3.50497 Y58.49998
G01 X3.46654 Y58.30672
G01 X3.35707 Y58.14289
G01 X3.19324 Y58.03341
G01 X2.99999 Y57.99498
G01 X-77.00000 Y57.99498
G01 X-77.19324 Y58.03341
G01 X-77.35707 Y58.14289
G01 X-77.46655 Y58.30672
G01 X-77.50498 Y58.49998

G04 P0 ( dwell for no time -- G64 should not smooth over this point )
G00 Z30.000 ( retract )

M5 ( Spindle off. )
G04 P10.000000
M9 ( Coolant off. )
M2 ( Program end. )

